!!!OTL: Bai Raedder 'Skon Guldborg, I drage af Landet med mig.'
!!!ARE: Nordeuropa, Daenemark
!!!YOR: 3, S. 280
!!    ????
!!!SCT: Q3071A
!!!YEM: Copyright 1995, estate of Helmut Schaffrath.
**kern
*ICvox
*Ivox
!! Irregular meter.
*MX
*k[b-]
*d:
{8A
=1
4d
8d
8d
=2
4a
8a
8a
=3
4b-
8a
8g
=4
4g}
{4fn
8g
=5
4a
4a
4.r}
{8a
=6
4b-
8a
8g
=7
4a
8e
8e
=8
4fn
8e
8d
=9
4c#}
{8d
8e
=10
4fn
8e
8d
=11
8fn
8e
8d
8c#
=12
4d
4d}
==
!!!AGN: Ballade, ???
!! Melodievergleich zu Q0071, anderes Lied "Ribold og Guldborg" .
!!    Zweite und vierte Zeile: Refrain.
!!!ONB: ESAC (Essen Associative Code) Database: BALLADE
!!!AMT: irregular
!!!AIN: vox
!!!EED: Helmut Schaffrath
!!!EEV: 1.0
*-
!!!title: @{OTL} [@{SCT}]
